packages/foundations/assets/icons/functional/images/arrows/undo.svg

<svg xmlns="http://www.w3.org/2000/svg" width="32" height="32" fill="none"><path fill="#1A1C1F" fill-rule="evenodd" d="M7.387 7.013c-.03.01-.126.033-.214.052-.118.026-.729.603-2.339 2.205-1.229 1.224-2.211 2.245-2.253 2.342a1.1 1.1 0 0 0 0 .776c.042.097 1.022 1.114 2.253 2.339 2.323 2.311 2.358 2.339 2.783 2.26.608-.113.954-.62.839-1.232-.031-.167-.236-.404-1.265-1.47l-1.228-1.272 8.525.001c8.117.001 8.548.006 9.008.1a4.9 4.9 0 0 1 2.383 1.228c.519.488.826.91 1.13 1.559.363.776.43 1.102.43 2.099s-.067 1.323-.43 2.099a4.7 4.7 0 0 1-1.07 1.504c-.607.581-1.232.943-2.084 1.209l-.468.146-6.64.028c-6.047.025-6.655.035-6.8.116-.333.183-.56.559-.56.925 0 .389.337.818.735.935.139.04 2.142.052 6.731.039l6.534-.019.523-.119c2.49-.569 4.447-2.309 5.23-4.653.263-.788.327-1.232.324-2.263-.002-.858-.017-1.021-.144-1.529-.377-1.506-1.034-2.601-2.2-3.663-.859-.783-2.089-1.389-3.334-1.643-.416-.084-1.162-.093-9.138-.11l-8.685-.019L7.16 9.745c.658-.681 1.225-1.291 1.259-1.355s.061-.242.061-.395c0-.354-.177-.673-.461-.829-.2-.11-.525-.189-.632-.153"/></svg>

<svg width="32" height="32" viewBox="0 0 32 32" fill="none" xmlns="http://www.w3.org/2000/svg"><path d="M7.387 7.013 C 7.357 7.023,7.261 7.046,7.173 7.065 C 7.055 7.091,6.444 7.668,4.834 9.270 C 3.605 10.494,2.623 11.515,2.581 11.612 C 2.486 11.831,2.486 12.169,2.581 12.388 C 2.623 12.485,3.603 13.502,4.834 14.727 C 7.157 17.038,7.192 17.066,7.617 16.987 C 8.225 16.874,8.571 16.367,8.456 15.755 C 8.425 15.588,8.220 15.351,7.191 14.285 L 5.963 13.013 14.488 13.014 C 22.605 13.015,23.036 13.020,23.496 13.114 C 24.405 13.302,25.216 13.720,25.879 14.342 C 26.398 14.830,26.705 15.252,27.009 15.901 C 27.372 16.677,27.439 17.003,27.439 18.000 C 27.439 18.997,27.372 19.323,27.009 20.099 C 26.717 20.721,26.410 21.153,25.939 21.603 C 25.332 22.184,24.707 22.546,23.855 22.812 L 23.387 22.958 16.747 22.986 C 10.700 23.011,10.092 23.021,9.947 23.102 C 9.614 23.285,9.387 23.661,9.387 24.027 C 9.387 24.416,9.724 24.845,10.122 24.962 C 10.261 25.002,12.264 25.014,16.853 25.001 L 23.387 24.982 23.910 24.863 C 26.400 24.294,28.357 22.554,29.140 20.210 C 29.403 19.422,29.467 18.978,29.464 17.947 C 29.462 17.089,29.447 16.926,29.320 16.418 C 28.943 14.912,28.286 13.817,27.120 12.755 C 26.261 11.972,25.031 11.366,23.786 11.112 C 23.370 11.028,22.624 11.019,14.648 11.002 L 5.963 10.983 7.160 9.745 C 7.818 9.064,8.385 8.454,8.419 8.390 C 8.452 8.326,8.480 8.148,8.480 7.995 C 8.480 7.641,8.303 7.322,8.019 7.166 C 7.819 7.056,7.494 6.977,7.387 7.013 " fill="#1A1C1F" stroke="none" fill-rule="evenodd"></path></svg>
